X: 10002
T: AMELIA'S JIG
C: Bob McQuillen 7 Nov 93
B: Bob's Note Book 10 #2
%R: jig
Z: 2018 John Chambers <jc:trillian.mit.edu>
M: 6/8
L: 1/8
K: D
FA \
| dfd edc | dcB A2A | GEE E2d | cAA AFA \
| dfd cde | dfd AFA | Bgf edc | d3  d  :|
|: fg \
| aff gfe | Add d2B | Adg agf | gfg efg \
| aff gfe | Add fdf | efg ABc | dAF D  :|
%%begintext align
%% Amelia Orzechowski is the
%% 6 year-old daughter of Peter and Jane - She lives in Newport,
%% N.H., and she's such a sweetheart that I figured she needed
%% a nice bouncey tune to dance to when she felt likt it, so
%% her it is, Amelia, with love from Bob
%%endtext

%%sep 1 1 500

%%sep 1 1 500

